X: 262
T: Highland Laddie
R: reel
M: C
L: 1/8
Z: 2012 John Chambers <jc:trillian.mit.edu>
B: J. Anderson "Budget of Strathspeys, Reels and Country Dances" (Early 1800s) p.26 #2
F: http://imslp.org/wiki/Anderson%27s_Budget_of_Strathspeys,_Reels_and_Country_Dances_(Various)
K: G
D |\
G2(GB) A2(AB) | GABc A2(AB) | G2(gf) edcB | ABcA B2G :|
d |\
d2d2 (dc).B.c | (de)(fg) (ed)Bc | d2d2 (dc)(Bc) | .d.e.f.g (ed)(cB) |
(ce).a.c (Bd).g.B | (Ac).B.c (dc).B.A | g2(fe) edcB | ABcA B2G |]

%%sep 2 1 500
%%sep 1 1 500

